!!!COM: Haydn, Franz Joseph 
!!!OPR: Symphony in E-flat Major 
!!!OTL: Affettuoso 
!!!OMV: 4 
!!!SCT: H I:22 
!!!SCA: Thematisch-bibliographisches Werkevererzeichnis (A. van Hoboken) 
!!!YOR: Breitkopf & Härtel Edition 
!!!EED: Frances Bennion 
!!!ENC: Frances Bennion 
!!!CDT: 1732/3/31/-1809/5/31/
!!!OCY: Österreich 
!!!YEC: Copyright (c) 1994, 2000 Center for Computer Assisted Research in the Humanities 
!!!YEM: Rights to all derivative editions reserved. 
!!!YEM: Refer to licensing agreement for further details. 
!!!YEN: United States of America 
**kern	**kern	**kern	**kern	**kern	**kern	**kern	**kern
*k[b-e-]	*k[b-e-]	*k[]	*k[]	*k[b-e-a-]	*k[b-e-a-]	*k[b-e-a-]	*k[b-e-a-]
*B-:	*B-:	*B-:	*B-:	*B-:	*B-:	*B-:	*B-:
*clefF	*clefF	*clefF	*clefF	*clefF	*clefF	*clefC3	*clefF4
*M6/8	*M6/8	*M6/8	*M6/8	*M6/8	*M6/8	*M6/8	*M6/8
*tb8	*tb8	*tb8	*tb8	*tb8	*tb8	*tb8	*tb8
=1	=1	=1	=1	=1	=1	=1	=1
2.r	2.r	2.r	2.r	4.b-	4.g	8E-	8E-
.	.	.	.	.	.	8E-	8E-
.	.	.	.	.	.	8E-	8E-
.	.	.	.	4.a-	4.f	8E-	8E-
.	.	.	.	.	.	8E-	8E-
.	.	.	.	.	.	8E-	8E-
=2	=2	=2	=2	=2	=2	=2	=2
[2.b-	[2.b-	8r	8r	4g	4e-	8E-	8E-
.	.	8cc	8c	.	.	8E-	8E-
.	.	8cc	8c	2r	2r	8E-	8E-
.	.	8cc	8c	.	.	8E-	8E-
.	.	8cc	8c	.	.	8E-	8E-
.	.	8cc	8c	.	.	8E-	8E-
=3	=3	=3	=3	=3	=3	=3	=3
2.b-_	2.b-_	4cc	4c	4.cc	4.a-	8E-	8E-
.	.	.	.	.	.	8E-	8E-
.	.	2r	2r	.	.	8E-	8E-
.	.	.	.	4.b-	4.g	8E-	8E-
.	.	.	.	.	.	8E-	8E-
.	.	.	.	.	.	8E-	8E-
=4	=4	=4	=4	=4	=4	=4	=4
2.b-_	2.b-_	8r	8r	4a-	4f	8E-	8E-
.	.	8cc	8c	.	.	8E-	8E-
.	.	8cc	8c	2r	2r	8E-	8E-
.	.	8cc	8c	.	.	8E-	8E-
.	.	8cc	8c	.	.	8E-	8E-
.	.	8cc	8c	.	.	8E-	8E-
=5	=5	=5	=5	=5	=5	=5	=5
2.b-_	2.b-_	4cc	4c	4.b-	4.g	8E-	8E-
.	.	.	.	.	.	8E-	8E-
.	.	2r	2r	.	.	8E-	8E-
.	.	.	.	4.a-	4.f	8E-	8E-
.	.	.	.	.	.	8E-	8E-
.	.	.	.	.	.	8E-	8E-
=6	=6	=6	=6	=6	=6	=6	=6
2.b-_	2.b-_	8r	8r	4g	4e-	8E-	8E-
.	.	8cc	8c	.	.	8E-	8E-
.	.	8cc	8c	2r	2r	8E-	8E-
.	.	8cc	8c	.	.	8E-	8E-
.	.	8cc	8c	.	.	8E-	8E-
.	.	8cc	8c	.	.	8E-	8E-
=7	=7	=7	=7	=7	=7	=7	=7
2.b-_	2.b-_	4cc	4c	2a-	4.c	8E-	8E-
.	.	.	.	.	.	8E-	8E-
.	.	2r	2r	.	.	8E-	8E-
.	.	.	.	.	4.A-	8E-	8E-
.	.	.	.	8f	.	8E-	8E-
.	.	.	.	8d	.	8E-	8E-
=8	=8	=8	=8	=8	=8	=8	=8
4b-]	4b-]	8r	8r	4e-	4G	8E-	8E-
.	.	8cc	8c	.	.	8E-	8E-
2r	2r	8cc	8c	2r	2r	8E-	8E-
.	.	8cc	8c	.	.	8E-	8E-
.	.	8cc	8c	.	.	8E-	8E-
.	.	8cc	8c	.	.	8E-	8E-
=9	=9	=9	=9	=9	=9	=9	=9
2.dd	2.a-	[2.cc	[2.c	2.d-	2.B-	8G	8E-
.	.	.	.	.	.	8G	8E-
.	.	.	.	.	.	8G	8E-
.	.	.	.	.	.	8G	8E-
.	.	.	.	.	.	8G	8E-
.	.	.	.	.	.	8G	8E-
=10	=10	=10	=10	=10	=10	=10	=10
2.ee-	2.g	2.cc]	2.c]	2.c	2.A-	8A-	8E-
.	.	.	.	.	.	8A-	8E-
.	.	.	.	.	.	8A-	8E-
.	.	.	.	.	.	8A-	8E-
.	.	.	.	.	.	8A-	8E-
.	.	.	.	.	.	8A-	8E-
=11	=11	=11	=11	=11	=11	=11	=11
2.cc	2.a	2.dd	2.g	2.d	2.A-	8F	8E-
.	.	.	.	.	.	8F	8E-
.	.	.	.	.	.	8F	8E-
.	.	.	.	.	.	8F	8E-
.	.	.	.	.	.	8F	8E-
.	.	.	.	.	.	8F	8E-
=12	=12	=12	=12	=12	=12	=12	=12
4dd	4b-	8ee	8cc	4e-	4G	4G	4E-
.	.	8gg	8ee	.	.	.	.
2r	2r	8gg	8ee	2r	2r	2r	2r
.	.	8gg	8ee	.	.	.	.
.	.	8gg	8ee	.	.	.	.
.	.	8gg	8ee	.	.	.	.
=13	=13	=13	=13	=13	=13	=13	=13
2.r	2.r	8gg	8ee	4g	4e-	4B-	4E-
.	.	8ee	8cc	.	.	.	.
.	.	8gg	8ee	8r	8r	8r	8r
.	.	8ff	8dd	4f	4d	4B-	4B-
.	.	8ee	8cc	.	.	.	.
.	.	8dd	8g	8r	8r	8r	8r
=14	=14	=14	=14	=14	=14	=14	=14
8dd	8b-	4cc	4e	4g	4e-	4B-	4E-
8ff	8dd	.	.	.	.	.	.
8ff	8dd	2r	2r	2r	2r	2r	2r
8ff	8dd	.	.	.	.	.	.
8ff	8dd	.	.	.	.	.	.
8ff	8dd	.	.	.	.	.	.
=15	=15	=15	=15	=15	=15	=15	=15
8ff	8dd	2.r	2.r	4g	4e-	4B-	4E-
8dd	8b-	.	.	.	.	.	.
8ff	8dd	.	.	8r	8r	8r	8r
8ee-	8cc	.	.	4f	4d	4B-	4B-
8dd	8b-	.	.	.	.	.	.
8cc	8a	.	.	8r	8r	8r	8r
=16	=16	=16	=16	=16	=16	=16	=16
2.dd	2.b-	2.ee	2.cc	8e-	8e-	8B-	8E-
.	.	.	.	8g	8g	8B-	8E-
.	.	.	.	8b-	8b-	8B-	8E-
.	.	.	.	8ee-	8ee-	8g	8E-
.	.	.	.	8gg	8gg	8g	8E-
.	.	.	.	8bb-	8bb-	8g	8E-
=17	=17	=17	=17	=17	=17	=17	=17
2.ff	2.cc	2.dd	2.g	8bb-	8bb-	8f	8D
.	.	.	.	8ff	8ff	8f	8D
.	.	.	.	8dd	8dd	8f	8D
.	.	.	.	8b-	8b-	8f	8D
.	.	.	.	8f	8f	8f	8D
.	.	.	.	8d	8d	8f	8D
=18	=18	=18	=18	=18	=18	=18	=18
4.bb-	4.b-	4.cc	4.cc	8e-	8e-	8g	8C
.	.	.	.	8ee-	8ee-	8g	8C
.	.	.	.	8ee-	8ee-	8g	8C
4.gg	4.cc	4.dd	4.dd	8f	8f	8f	8AA
.	.	.	.	8ee-	8ee-	8f	8AA
.	.	.	.	8ee-	8ee-	8f	8AA
=19	=19	=19	=19	=19	=19	=19	=19
4.aa	2.cc	4dd	4g	8dd	8dd	8f	8BB-
.	.	.	.	8b-	8b-	8f	8BB-
.	.	2r	2r	8ff	8ff	8f	8BB-
4.ff	.	.	.	8ff	8ff	8B-	8D
.	.	.	.	8d	8d	8B-	8D
.	.	.	.	8ff	8ff	8B-	8D
=20	=20	=20	=20	=20	=20	=20	=20
4.dd	4.dd	2.r	2.r	8e-	8e-	8B-	8E-
.	.	.	.	8gg	8gg	8B-	8E-
.	.	.	.	8gg	8gg	8B-	8E-
4.ff	4.dd	.	.	8gg	8gg	8G	8E
.	.	.	.	8g	8g	8G	8E
.	.	.	.	8b-	8b-	8G	8E
=21	=21	=21	=21	=21	=21	=21	=21
4ee	4cc	2.r	2.r	8a	4a	4F	4F
.	.	.	.	8f	.	.	.
2r	2r	.	.	8a	2r	2r	2r
.	.	.	.	8cc	.	.	.
.	.	.	.	8a	.	.	.
.	.	.	.	8cc	.	.	.
=22	=22	=22	=22	=22	=22	=22	=22
4.g	4.e	8dd	8dd	8ff	4.e-	4.c	4.c
.	.	8dd	8dd	8ff	.	.	.
.	.	8dd	8dd	8ff	.	.	.
4.a	4.f	8dd	8dd	8ff	4.d	4.B-	4.B-
.	.	8dd	8dd	8ff	.	.	.
.	.	8dd	8dd	8ff	.	.	.
=23	=23	=23	=23	=23	=23	=23	=23
4b-	4g	4dd	4dd	8ff	4c	4A	4A
.	.	.	.	8gg	.	.	.
2r	2r	2r	2r	8ff	2r	2r	2r
.	.	.	.	8ee-	.	.	.
.	.	.	.	8dd	.	.	.
.	.	.	.	8cc	.	.	.
=24	=24	=24	=24	=24	=24	=24	=24
4.a	4.f	8dd	8dd	8b-	4.f	4.d	4.d
.	.	8dd	8dd	8ff	.	.	.
.	.	8dd	8dd	8ff	.	.	.
4.b-	4.g	8dd	8dd	8ff	4.e-	4.c	4.c
.	.	8dd	8dd	8ff	.	.	.
.	.	8dd	8dd	8ff	.	.	.
=25	=25	=25	=25	=25	=25	=25	=25
4cc	4a	4dd	4dd	8ff	4d	4B-	4B-
.	.	.	.	8bb-	.	.	.
2r	2r	2r	2r	8gg	2r	2r	2r
.	.	.	.	8ff	.	.	.
.	.	.	.	8dd	.	.	.
.	.	.	.	8b-	.	.	.
=26	=26	=26	=26	=26	=26	=26	=26
4.g	4.e	8dd	8dd	8a	4.e-	4.c	4.c
.	.	8dd	8dd	8ff	.	.	.
.	.	8dd	8dd	8ff	.	.	.
4.a	4.f	8dd	8dd	8ff	4.d	4.B-	4.B-
.	.	8dd	8dd	8ff	.	.	.
.	.	8dd	8dd	8ff	.	.	.
=27	=27	=27	=27	=27	=27	=27	=27
4b-	4g	4dd	4dd	8ff	4c	4A	4A
.	.	.	.	8gg	.	.	.
2r	2r	2r	2r	8ff	2r	2r	2r
.	.	.	.	8ee-	.	.	.
.	.	.	.	8dd	.	.	.
.	.	.	.	8cc	.	.	.
=28	=28	=28	=28	=28	=28	=28	=28
2.a	2.a	[2.dd	[2.g	8dd	8dd	8f	8B-
.	.	.	.	8b-	8b-	8d	8B-
.	.	.	.	8bb-	8bb-	8d	8B-
.	.	.	.	8bb-	8bb-	8d	8B-
.	.	.	.	8bb-	8bb-	8d	8B-
.	.	.	.	8bb-	8bb-	8d	8B-
=29	=29	=29	=29	=29	=29	=29	=29
2.ff	2.ff	2.dd]	2.g]	8bb-	8bb-	8f	8D
.	.	.	.	8ff	8ff	8f	8D
.	.	.	.	8dd	8dd	8f	8D
.	.	.	.	8b-	8b-	8f	8D
.	.	.	.	8f	8f	8f	8D
.	.	.	.	8d	8d	8f	8D
=30	=30	=30	=30	=30	=30	=30	=30
2.dd	2.dd	[2.ee	[2.cc	8e-	8e-	8g	8E-
.	.	.	.	8gg	8gg	8B-	8E-
.	.	.	.	8gg	8gg	8B-	8E-
.	.	.	.	8gg	8gg	8B-	8E-
.	.	.	.	8gg	8gg	8B-	8E-
.	.	.	.	8gg	8gg	8B-	8E-
=31	=31	=31	=31	=31	=31	=31	=31
2.b-	2.g	2.ee]	2.cc]	8gg	8gg	8c	8E-
.	.	.	.	8ee-	8ee-	8c	8E-
.	.	.	.	8cc	8cc	8c	8E-
.	.	.	.	8g	8g	8c	8E-
.	.	.	.	8e-	8e-	8c	8E-
.	.	.	.	8c	8c	8c	8E-
=32	=32	=32	=32	=32	=32	=32	=32
2.a	2.f	4dd	4dd	4.B-	8B-	8d	8F
.	.	.	.	.	8B-	8d	8F
.	.	2r	2r	.	8B-	8d	8F
.	.	.	.	4.d	8B-	8d	8F
.	.	.	.	.	8B-	8d	8F
.	.	.	.	.	8B-	8d	8F
=33	=33	=33	=33	=33	=33	=33	=33
2.a	2.f	2.r	2.r	2.f	8d	8d	8F
.	.	.	.	.	8B-	8d	8F
.	.	.	.	.	8B-	8d	8F
.	.	.	.	.	8d	8d	8F
.	.	.	.	.	8B-	8d	8F
.	.	.	.	.	8B-	8d	8F
=34	=34	=34	=34	=34	=34	=34	=34
[2.a-	[2.f	2.r	2.r	4.B-	8B-	8d-	8F
.	.	.	.	.	8B-	8d-	8F
.	.	.	.	.	8B-	8d-	8F
.	.	.	.	4.d-	8B-	8d-	8F
.	.	.	.	.	8B-	8d-	8F
.	.	.	.	.	8B-	8d-	8F
=35	=35	=35	=35	=35	=35	=35	=35
2.a-]	2.f]	2.r	2.r	2.f	8d-	8d-	8F
.	.	.	.	.	8B-	8d-	8F
.	.	.	.	.	8B-	8d-	8F
.	.	.	.	.	8d-	8d-	8F
.	.	.	.	.	8B-	8d-	8F
.	.	.	.	.	8B-	8d-	8F
=36	=36	=36	=36	=36	=36	=36	=36
[2.b	[2.f	[2.g	[2.g	4.B-	8B-	8e	8G-
.	.	.	.	.	8B-	8e	8G-
.	.	.	.	.	8B-	8e	8G-
.	.	.	.	4.d-	8B-	8e	8G-
.	.	.	.	.	8B-	8e	8G-
.	.	.	.	.	8B-	8e	8G-
=37	=37	=37	=37	=37	=37	=37	=37
2.b]	2.f]	2.g]	2.g]	2.e	8e	8B-	8G-
.	.	.	.	.	8B-	8d-	8G-
.	.	.	.	.	8B-	8d-	8G-
.	.	.	.	.	8e	8d-	8G-
.	.	.	.	.	8B-	8d-	8G-
.	.	.	.	.	8B-	8d-	8G-
=38	=38	=38	=38	=38	=38	=38	=38
4.cc	2.f	4dd	4dd	8f	8f	8f	8F
.	.	.	.	8ff	8dd	8f	8F
.	.	2r	2r	8ff	8dd	8f	8F
4.a	.	.	.	8ff	8dd	8f	8F
.	.	.	.	8dd	8b-	8f	8F
.	.	.	.	8b-	8f	8f	8F
=39	=39	=39	=39	=39	=39	=39	=39
4.b-	4.g	2.r	2.r	8f	8f	8f	8F
.	.	.	.	8ee-	8cc	8f	8F
.	.	.	.	8ee-	8cc	8f	8F
4.g	4.e	.	.	8ee-	8cc	8f	8F
.	.	.	.	8cc	8a	8f	8F
.	.	.	.	8a	8f	8f	8F
=40	=40	=40	=40	=40	=40	=40	=40
4f	4f	2.dd	2.g	8b-	8b-	8d	8BB-
.	.	.	.	8dd	8dd	8d	8BB-
2r	2r	.	.	8ff	8ff	8d	8BB-
.	.	.	.	8bb-	8bb-	8f	8D
.	.	.	.	8b-	8b-	8f	8D
.	.	.	.	8bb-	8bb-	8f	8D
=41	=41	=41	=41	=41	=41	=41	=41
2.r	2.r	4.ee	4.cc	8e-	8e-	8e-	8E-
.	.	.	.	8gg	8ee-	8e-	8E-
.	.	.	.	8ff	8dd	8e-	8E-
.	.	4.dd	4.dd	8ee-	8cc	8f	8F
.	.	.	.	8dd	8b-	8f	8F
.	.	.	.	8cc	8a	8f	8F
=42	=42	=42	=42	=42	=42	=42	=42
2.r	2.r	2.dd	2.g	8b-	8b-	8d	8B-
.	.	.	.	8dd	8dd	8d	8B-
.	.	.	.	8ff	8ff	8d	8B-
.	.	.	.	8bb-	8bb-	8f	8D
.	.	.	.	8b-	8b-	8f	8D
.	.	.	.	8bb-	8bb-	8f	8D
=43	=43	=43	=43	=43	=43	=43	=43
2.r	2.r	4.ee	4.cc	8e-	8e-	8e-	8E-
.	.	.	.	8gg	8ee-	8e-	8E-
.	.	.	.	8ff	8dd	8e-	8E-
.	.	4.dd	4.dd	8ee-	8cc	8f	8F
.	.	.	.	8dd	8b-	8f	8F
.	.	.	.	8cc	8a	8f	8F
=44	=44	=44	=44	=44	=44	=44	=44
4.ff	4.a	4.dd	4.g	4.b-	4.b-	4.f	4.B-
4.ff	4.a	4.dd	4.g	4.B- 4.d 4.b-	4.d 4.b-	4.f	4.BB-
=45	=45	=45	=45	=45	=45	=45	=45
4ff	4a	4dd	4g	4.B- 4.b- 4.d	4d 4b-	4f	4BB-
2r	2r	2r	2r	.	2r	2r	2r
.	.	.	.	4.r	.	.	.
=46	=46	=46	=46	=46	=46	=46	=46
2.r	2.r	2.r	2.r	4.f	4.d	2.r	2.r
.	.	.	.	4.e-	4.c	.	.
=47	=47	=47	=47	=47	=47	=47	=47
2.r	2.r	2.r	2.r	4d	4B-	4.d	4.B-
.	.	.	.	2r	2r	.	.
.	.	.	.	.	.	4.c	4.A-
=48	=48	=48	=48	=48	=48	=48	=48
2.r	2.r	2.r	2.r	4.b-	4.g	4B-	4G
.	.	.	.	.	.	2r	2r
.	.	.	.	4.a-	4.f	.	.
=49	=49	=49	=49	=49	=49	=49	=49
2.r	2.r	2.r	2.r	4g	4e-	4.g	4.e-
.	.	.	.	2r	2r	.	.
.	.	.	.	.	.	4.f	4.d-
=50	=50	=50	=50	=50	=50	=50	=50
2.r	2.r	2.r	2.r	4.e-	2.e-	[2.e-	4.c
.	.	.	.	4.d-	.	.	4.B-
=51	=51	=51	=51	=51	=51	=51	=51
2.r	2.r	2.r	2.r	4c	4.cc	4.e-]	4.A-
.	.	.	.	2r	.	.	.
.	.	.	.	.	4.b-	4.e	4.G-
=52	=52	=52	=52	=52	=52	=52	=52
2.r	2.r	2.r	2.r	4.f	4a	4.f	4.F
.	.	.	.	.	2r	.	.
.	.	.	.	4.e-	.	4.A	4.A
=53	=53	=53	=53	=53	=53	=53	=53
2.r	2.r	2.r	2.r	4.d	4.f	4.B-	4.B-
.	.	.	.	4.c	4.f#	4.A-	4.A-
=54	=54	=54	=54	=54	=54	=54	=54
[2.dd	[2.f#	[2.ee	[2.e	4.B	8g	8G	8G
.	.	.	.	.	8d 8B	8G	8G
.	.	.	.	.	8B 8d	8G	8G
.	.	.	.	4.d	8d 8B	8G	8G
.	.	.	.	.	8d 8B	8G	8G
.	.	.	.	.	8d 8B	8G	8G
=55	=55	=55	=55	=55	=55	=55	=55
2.dd]	2.f#]	2.ee]	2.e]	2.g	8d 8B	8G	8G
.	.	.	.	.	8d 8B	8G	8G
.	.	.	.	.	8B 8d	8G	8G
.	.	.	.	.	8d 8B	8G	8G
.	.	.	.	.	8d 8B	8G	8G
.	.	.	.	.	8d 8B	8G	8G
=56	=56	=56	=56	=56	=56	=56	=56
[2.ee-	[2.f#	2.r	2.r	4.B	8d 8B	8G	8F
.	.	.	.	.	8B 8d	8G	8F
.	.	.	.	.	8d 8B	8G	8F
.	.	.	.	4.d	8d 8B	8G	8F
.	.	.	.	.	8d 8B	8G	8F
.	.	.	.	.	8d 8B	8G	8F
=57	=57	=57	=57	=57	=57	=57	=57
2.ee-_	2.f#_	2.r	2.r	2.a-	8d 8B	8d	8F
.	.	.	.	.	8d 8B	8d	8F
.	.	.	.	.	8d 8B	8d	8F
.	.	.	.	.	8d 8B	8d	8F
.	.	.	.	.	8B 8d	8d	8F
.	.	.	.	.	8d 8B	8d	8F
=58	=58	=58	=58	=58	=58	=58	=58
2.ee-_	2.f#_	2.r	2.r	4.B	8A- 8f	8B	8D
.	.	.	.	.	8f 8A-	8B	8D
.	.	.	.	.	8f 8A-	8B	8D
.	.	.	.	4.f	8f 8A-	8B	8D
.	.	.	.	.	8f 8A-	8B	8D
.	.	.	.	.	8A- 8f	8B	8D
=59	=59	=59	=59	=59	=59	=59	=59
2.ee-]	2.f#]	2.r	2.r	2.a-	8f 8A-	8B	8D
.	.	.	.	.	8f 8A-	8B	8D
.	.	.	.	.	8A- 8f	8B	8D
.	.	.	.	.	8A- 8f	8B	8D
.	.	.	.	.	8f 8A-	8B	8D
.	.	.	.	.	8f 8A-	8B	8D
=60	=60	=60	=60	=60	=60	=60	=60
[2.ee-	4.g	2.r	2.r	4.c	8f 8A-	8c	8C
.	.	.	.	.	8A- 8f	8c	8C
.	.	.	.	.	8A- 8f	8c	8C
.	[4.cc	.	.	4.f	8f 8A-	8c	8C
.	.	.	.	.	8A- 8f	8c	8C
.	.	.	.	.	8A- 8f	8c	8C
=61	=61	=61	=61	=61	=61	=61	=61
2.ee-]	2.cc]	2.r	2.r	2.a-	8A- 8f	8c	8C
.	.	.	.	.	8A- 8f	8c	8C
.	.	.	.	.	8f 8A-	8c	8C
.	.	.	.	.	8f 8A-	8c	8C
.	.	.	.	.	8A- 8f	8c	8C
.	.	.	.	.	8f 8A-	8c	8C
=62	=62	=62	=62	=62	=62	=62	=62
[2.dd-	[2.b-	[2.cc	[2.c	4.A-	8A- 8e-	8c	8C
.	.	.	.	.	8A- 8e-	8c	8C
.	.	.	.	.	8A- 8e-	8c	8C
.	.	.	.	4.e-	8A- 8e-	8c	8C
.	.	.	.	.	8A- 8e-	8c	8C
.	.	.	.	.	8A- 8e-	8c	8C
=63	=63	=63	=63	=63	=63	=63	=63
2.dd-]	2.b-]	2.cc]	2.c]	2.g-	8A- 8e-	8c	8C
.	.	.	.	.	8A- 8e-	8c	8C
.	.	.	.	.	8e- 8A-	8c	8C
.	.	.	.	.	8A- 8e-	8c	8C
.	.	.	.	.	8A- 8e-	8c	8C
.	.	.	.	.	8e- 8A-	8c	8C
=64	=64	=64	=64	=64	=64	=64	=64
[2.cc	[2.a-	2.r	2.r	4.A-	8A- 8f	8d-	8D-
.	.	.	.	.	8f 8A-	8d-	8D-
.	.	.	.	.	8f 8A-	8d-	8D-
.	.	.	.	4.d-	8f 8A-	8d-	8D-
.	.	.	.	.	8A- 8f	8d-	8D-
.	.	.	.	.	8f 8A-	8d-	8D-
=65	=65	=65	=65	=65	=65	=65	=65
2.cc_	2.a-_	2.r	2.r	2.f	8f 8A-	8d-	8D-
.	.	.	.	.	8f 8A-	8d-	8D-
.	.	.	.	.	8f 8A-	8d-	8D-
.	.	.	.	.	8f 8A-	8d-	8D-
.	.	.	.	.	8f 8A-	8d-	8D-
.	.	.	.	.	8A- 8f	8d-	8D-
=66	=66	=66	=66	=66	=66	=66	=66
2.cc_	2.a-_	[2.g	[2.g	4.B-	8f 8d-	8B-	8BB-
.	.	.	.	.	8d- 8f	8B-	8BB-
.	.	.	.	.	8f 8d-	8B-	8BB-
.	.	.	.	4.f	8f 8d-	8B-	8BB-
.	.	.	.	.	8f 8d-	8B-	8BB-
.	.	.	.	.	8d- 8f	8B-	8BB-
=67	=67	=67	=67	=67	=67	=67	=67
2.cc]	2.a-]	2.g]	2.g]	2.dd-	8f 8d-	8B-	8BB-
.	.	.	.	.	8f 8d-	8B-	8BB-
.	.	.	.	.	8d- 8f	8B-	8BB-
.	.	.	.	.	8f 8d-	8B-	8BB-
.	.	.	.	.	8f 8d-	8B-	8BB-
.	.	.	.	.	8f 8d-	8B-	8BB-
=68	=68	=68	=68	=68	=68	=68	=68
[2.b-	[2.a-	[2.cc	[2.c	4.e-	8e- 8d-	8B-	8GG
.	.	.	.	.	8e- 8d-	8B-	8GG
.	.	.	.	.	8e- 8d-	8B-	8GG
.	.	.	.	4.b-	8d- 8e-	8B-	8GG
.	.	.	.	.	8d- 8e-	8B-	8GG
.	.	.	.	.	8e- 8d-	8B-	8GG
=69	=69	=69	=69	=69	=69	=69	=69
2.b-]	2.a-]	2.cc]	2.c]	2.dd-	8d- 8e-	8B-	8GG
.	.	.	.	.	8d- 8e-	8B-	8GG
.	.	.	.	.	8d- 8e-	8B-	8GG
.	.	.	.	.	8d- 8e-	8B-	8GG
.	.	.	.	.	8d- 8e-	8B-	8GG
.	.	.	.	.	8e- 8d-	8B-	8GG
=70	=70	=70	=70	=70	=70	=70	=70
2.b-	2.g	2.cc	2.c	8e-	8e- 8c	8A-	8AA-
.	.	.	.	8cc	8e- 8c	8A-	8AA-
.	.	.	.	8cc	8c 8e-	8A-	8AA-
.	.	.	.	8cc	8e- 8c	8A-	8AA-
.	.	.	.	8cc	8c 8e-	8A-	8AA-
.	.	.	.	8cc	8c 8e-	8A-	8AA-
=71	=71	=71	=71	=71	=71	=71	=71
2.cc	2.a	2.dd	2.g	8f	8f 8B-	8a-	8A-
.	.	.	.	8dd	8f 8B-	8a-	8A-
.	.	.	.	8dd	8f 8B-	8a-	8A-
.	.	.	.	8dd	8f 8B-	8a-	8A-
.	.	.	.	8dd	8f 8B-	8a-	8A-
.	.	.	.	8dd	8f 8B-	8a-	8A-
=72	=72	=72	=72	=72	=72	=72	=72
4.dd	4.b-	4.ee	4.cc	8g	8e-	8g	8G
.	.	.	.	8ee-	8e-	8g	8G
.	.	.	.	8ee-	8e-	8g	8G
4.cc	4.cc	4.dd	4.dd	8b-	8b-	8d	8D
.	.	.	.	8ff	8b-	8d	8D
.	.	.	.	8ff	8b-	8d	8D
=73	=73	=73	=73	=73	=73	=73	=73
4.dd	4.dd	4.ee	4.cc	8b-	8b-	8e-	8E-
.	.	.	.	8gg	8b-	8e-	8E-
.	.	.	.	8gg	8b-	8e-	8E-
4.ee	4.b-	4.cc	4.cc	8cc	8e-	8c	8C
.	.	.	.	8aa	8e-	8c	8C
.	.	.	.	8aa	8e-	8c	8C
=74	=74	=74	=74	=74	=74	=74	=74
4.ff	4.a	4.dd	4.g	8bb-	8d	8B-	8BB-
.	.	.	.	8b-	8d	8B-	8BB-
.	.	.	.	8b-	8d	8B-	8BB-
4.ff	4.a	4.g	4.g	8b-	8d	8B-	8BB-
.	.	.	.	8b-	8d	8B-	8BB-
.	.	.	.	8b-	8d	8B-	8BB-
=75	=75	=75	=75	=75	=75	=75	=75
4ff	4a	4g	4g	4b-	4d	4B-	4BB-
2r	2r	2r	2r	2r	2r	2r	2r
=76	=76	=76	=76	=76	=76	=76	=76
2.r	2.r	2.r	2.r	4.b-	4.g	8E-	8E-
.	.	.	.	.	.	8E-	8E-
.	.	.	.	.	.	8E-	8E-
.	.	.	.	4.a-	4.f	8E-	8E-
.	.	.	.	.	.	8E-	8E-
.	.	.	.	.	.	8E-	8E-
=77	=77	=77	=77	=77	=77	=77	=77
[2.b-	[2.b-	8r	8r	4g	4e-	8E-	8E-
.	.	8cc	8c	.	.	8E-	8E-
.	.	8cc	8c	2r	2r	8E-	8E-
.	.	8cc	8c	.	.	8E-	8E-
.	.	8cc	8c	.	.	8E-	8E-
.	.	8cc	8c	.	.	8E-	8E-
=78	=78	=78	=78	=78	=78	=78	=78
2.b-_	2.b-_	4cc	4c	4.cc	4.a-	8E-	8E-
.	.	.	.	.	.	8E-	8E-
.	.	2r	2r	.	.	8E-	8E-
.	.	.	.	4.b-	4.g	8E-	8E-
.	.	.	.	.	.	8E-	8E-
.	.	.	.	.	.	8E-	8E-
=79	=79	=79	=79	=79	=79	=79	=79
2.b-_	2.b-_	8r	8r	4a-	4f	8E-	8E-
.	.	8cc	8c	.	.	8E-	8E-
.	.	8cc	8c	2r	2r	8E-	8E-
.	.	8cc	8c	.	.	8E-	8E-
.	.	8cc	8c	.	.	8E-	8E-
.	.	8cc	8c	.	.	8E-	8E-
=80	=80	=80	=80	=80	=80	=80	=80
2.b-_	2.b-_	4cc	4c	4.b-	4.g	8E-	8E-
.	.	.	.	.	.	8E-	8E-
.	.	2r	2r	.	.	8E-	8E-
.	.	.	.	4.a-	4.f	8E-	8E-
.	.	.	.	.	.	8E-	8E-
.	.	.	.	.	.	8E-	8E-
=81	=81	=81	=81	=81	=81	=81	=81
2.b-_	2.b-_	8r	8r	4g	4e-	8E-	8E-
.	.	8cc	8c	.	.	8E-	8E-
.	.	8cc	8c	2r	2r	8E-	8E-
.	.	8cc	8c	.	.	8E-	8E-
.	.	8cc	8c	.	.	8E-	8E-
.	.	8cc	8c	.	.	8E-	8E-
=82	=82	=82	=82	=82	=82	=82	=82
2.b-_	2.b-_	4cc	4c	2a-	4.c	8E-	8E-
.	.	.	.	.	.	8E-	8E-
.	.	2r	2r	.	.	8E-	8E-
.	.	.	.	.	4.A-	8E-	8E-
.	.	.	.	8f	.	8E-	8E-
.	.	.	.	8d	.	8E-	8E-
=83	=83	=83	=83	=83	=83	=83	=83
4b-]	4b-]	8r	8r	4e-	4G	8E-	8E-
.	.	8cc	8c	.	.	8E-	8E-
2r	2r	8cc	8c	2r	2r	8E-	8E-
.	.	8cc	8c	.	.	8E-	8E-
.	.	8cc	8c	.	.	8E-	8E-
.	.	8cc	8c	.	.	8E-	8E-
=84	=84	=84	=84	=84	=84	=84	=84
2.dd	2.a-	[2.cc	[2.c	2.d-	2.B-	8G	8E-
.	.	.	.	.	.	8G	8E-
.	.	.	.	.	.	8G	8E-
.	.	.	.	.	.	8G	8E-
.	.	.	.	.	.	8G	8E-
.	.	.	.	.	.	8G	8E-
=85	=85	=85	=85	=85	=85	=85	=85
2.ee-	2.g	2.cc]	2.c]	2.c	2.A-	8A-	8E-
.	.	.	.	.	.	8A-	8E-
.	.	.	.	.	.	8A-	8E-
.	.	.	.	.	.	8A-	8E-
.	.	.	.	.	.	8A-	8E-
.	.	.	.	.	.	8A-	8E-
=86	=86	=86	=86	=86	=86	=86	=86
2.cc	2.a	2.dd	2.g	2.d	2.A-	8F	8E-
.	.	.	.	.	.	8F	8E-
.	.	.	.	.	.	8F	8E-
.	.	.	.	.	.	8F	8E-
.	.	.	.	.	.	8F	8E-
.	.	.	.	.	.	8F	8E-
=87	=87	=87	=87	=87	=87	=87	=87
4dd	4b-	8ee	8cc	4.e-	4G	4G	4E-
.	.	8gg	8ee	.	.	.	.
2r	2r	8gg	8ee	.	2r	2r	2r
.	.	8gg	8ee	4.r	.	.	.
.	.	8gg	8ee	.	.	.	.
.	.	8gg	8ee	.	.	.	.
=88	=88	=88	=88	=88	=88	=88	=88
2.r	2.r	8gg	8ee	4g	4e-	4B-	4E-
.	.	8ee	8cc	.	.	.	.
.	.	8gg	8ee	8r	8r	8r	8r
.	.	8ff	8dd	4f	4d	4B-	4B-
.	.	8ee	8cc	.	.	.	.
.	.	8dd	8b	8r	8r	8r	8r
=89	=89	=89	=89	=89	=89	=89	=89
8dd	8b-	4cc	4e	4g	4e-	4B-	4E-
8ff	8dd	.	.	.	.	.	.
8ff	8dd	2r	2r	2r	2r	2r	2r
8ff	8dd	.	.	.	.	.	.
8ff	8dd	.	.	.	.	.	.
8ff	8dd	.	.	.	.	.	.
=90	=90	=90	=90	=90	=90	=90	=90
8ff	8dd	2.r	2.r	4g	4e-	4B-	4E-
8dd	8b-	.	.	.	.	.	.
8ff	8dd	.	.	8r	8r	8r	8r
8ee-	8cc	.	.	4f	4d	4B-	4B-
8dd	8b-	.	.	.	.	.	.
8cc	8a	.	.	8r	8r	8r	8r
=91	=91	=91	=91	=91	=91	=91	=91
[2.b-	[2.b-	[2.ee	[2.cc	8e-	8e-	8B-	8G
.	.	.	.	8ee-	8ee-	8B-	8G
.	.	.	.	8ee-	8ee-	8B-	8G
.	.	.	.	8ee-	8ee-	8B-	8G
.	.	.	.	8ee-	8ee-	8B-	8G
.	.	.	.	8ee-	8ee-	8B-	8G
=92	=92	=92	=92	=92	=92	=92	=92
2.b-_	2.b-_	2.ee]	2.cc]	8ee-	8ee-	8B-	8G
.	.	.	.	8b-	8b-	8B-	8G
.	.	.	.	8ee-	8ee-	8B-	8G
.	.	.	.	8dd-	8dd-	8B-	8G
.	.	.	.	8cc	8cc	8B-	8G
.	.	.	.	8b-	8b-	8B-	8G
=93	=93	=93	=93	=93	=93	=93	=93
4b-]	4b-]	2.r	2.r	8cc	8cc	8c	8A-
.	.	.	.	8ff	8ff	8c	8A-
2r	2r	.	.	8ff	8ff	8c	8A-
.	.	.	.	8ff	8ff	8c	8A-
.	.	.	.	8ff	8ff	8c	8A-
.	.	.	.	8ff	8ff	8c	8A-
=94	=94	=94	=94	=94	=94	=94	=94
2.r	2.r	2.r	2.r	8ff	8ff	8c	8A-
.	.	.	.	8cc	8cc	8c	8A-
.	.	.	.	8ff	8ff	8c	8A-
.	.	.	.	8ee-	8ee-	8c	8A
.	.	.	.	8dd	8dd	8c	8A
.	.	.	.	8cc	8cc	8c	8A
=95	=95	=95	=95	=95	=95	=95	=95
2.r	2.r	2.r	2.r	8dd	4b-	4F	4B-
.	.	.	.	8b-	.	.	.
.	.	.	.	8dd	2r	2r	2r
.	.	.	.	8ff	.	.	.
.	.	.	.	8dd	.	.	.
.	.	.	.	8ff	.	.	.
=96	=96	=96	=96	=96	=96	=96	=96
4.cc	4.a	8gg	8g	8bb-	4.a-	4.f	4.f
.	.	8gg	8g	8b-	.	.	.
.	.	8gg	8g	8b-	.	.	.
4.dd	4.b-	8gg	8g	8b-	4.g	4.e-	4.e-
.	.	8gg	8g	8b-	.	.	.
.	.	8gg	8g	8b-	.	.	.
=97	=97	=97	=97	=97	=97	=97	=97
4ee-	4cc	4gg	4g	8b-	4f	4d	4d
.	.	.	.	8ff	.	.	.
2r	2r	2r	2r	8gg	2r	2r	2r
.	.	.	.	8aa-	.	.	.
.	.	.	.	8ff	.	.	.
.	.	.	.	8dd	.	.	.
=98	=98	=98	=98	=98	=98	=98	=98
4.dd	4.b-	8g	8G	8ee-	4.b-	4.g	4.g
.	.	8g	8G	8b-	.	.	.
.	.	8g	8G	8b-	.	.	.
4.ee-	4.cc	8g	8G	8b-	4.a-	4.f	4.f
.	.	8g	8G	8b-	.	.	.
.	.	8g	8G	8b-	.	.	.
=99	=99	=99	=99	=99	=99	=99	=99
4ff	4dd	4g	4G	8b-	4g	4e-	4e-
.	.	.	.	8gg	.	.	.
2r	2r	2r	2r	8aa-	2r	2r	2r
.	.	.	.	8bb-	.	.	.
.	.	.	.	8gg	.	.	.
.	.	.	.	8ee-	.	.	.
=100	=100	=100	=100	=100	=100	=100	=100
4.cc	4.a	8gg	8g	8dd	4.a-	4.f	4.f
.	.	8gg	8g	8b-	.	.	.
.	.	8gg	8g	8b-	.	.	.
4.dd	4.b-	8gg	8g	8b-	4.g	4.e-	4.e-
.	.	8gg	8g	8b-	.	.	.
.	.	8gg	8g	8b-	.	.	.
=101	=101	=101	=101	=101	=101	=101	=101
4ee-	4cc	4gg	4g	8b-	4f	4d	4d
.	.	.	.	8ff	.	.	.
2r	2r	2r	2r	8gg	2r	2r	2r
.	.	.	.	8aa-	.	.	.
.	.	.	.	8ff	.	.	.
.	.	.	.	8dd	.	.	.
=102	=102	=102	=102	=102	=102	=102	=102
[2.dd	[2.b-	[2.ee	[2.cc	8ee-	8g	8e-	8E-
.	.	.	.	8e-	8g	8e-	8E-
.	.	.	.	8ee-	8g	8e-	8E-
.	.	.	.	8ee-	8g	8e-	8E-
.	.	.	.	8ee-	8g	8e-	8E-
.	.	.	.	8ee-	8g	8e-	8E-
=103	=103	=103	=103	=103	=103	=103	=103
4dd]	4b-]	4ee]	4cc]	8ee-	8ee-	8G	8GG
.	.	.	.	8b-	8b-	8G	8GG
2r	2r	2r	2r	8g	8g	8G	8GG
.	.	.	.	8ee-	8ee-	8G	8GG
.	.	.	.	8b-	8b-	8G	8GG
.	.	.	.	8g	8g	8G	8GG
=104	=104	=104	=104	=104	=104	=104	=104
2.r	2.r	2.r	2.r	8f	8f	8A-	8AA-
.	.	.	.	8cc	8cc	8A-	8AA-
.	.	.	.	8cc	8cc	8A-	8AA-
.	.	.	.	8cc	8cc	8A-	8AA-
.	.	.	.	8cc	8cc	8A-	8AA-
.	.	.	.	8cc	8cc	8A-	8AA-
=105	=105	=105	=105	=105	=105	=105	=105
2.r	2.r	2.r	2.r	8cc	8cc	8A-	8AA-
.	.	.	.	8a-	8a-	8A-	8AA-
.	.	.	.	8f	8f	8A-	8AA-
.	.	.	.	8cc	8cc	8A-	8AA-
.	.	.	.	8a-	8a-	8A-	8AA-
.	.	.	.	8f	8f	8A-	8AA-
=106	=106	=106	=106	=106	=106	=106	=106
[2.dd	[2.b-	[2.ee	[2.cc	4.e-	8e-	8G	8BB-
.	.	.	.	.	8e-	8G	8BB-
.	.	.	.	.	8e-	8G	8BB-
.	.	.	.	4.g	8e-	8G	8BB-
.	.	.	.	.	8e-	8G	8BB-
.	.	.	.	.	8e-	8G	8BB-
=107	=107	=107	=107	=107	=107	=107	=107
2.dd]	2.b-]	2.ee]	2.cc]	2.b-	8g	8G	8BB-
.	.	.	.	.	8e-	8G	8BB-
.	.	.	.	.	8e-	8G	8BB-
.	.	.	.	.	8g	8G	8BB-
.	.	.	.	.	8e-	8G	8BB-
.	.	.	.	.	8e-	8G	8BB-
=108	=108	=108	=108	=108	=108	=108	=108
[2.dd-	[2.b-	[2.cc	[2.c	4.e-	8e-	8G-	8BB-
.	.	.	.	.	8e-	8G-	8BB-
.	.	.	.	.	8e-	8G-	8BB-
.	.	.	.	4.g-	8e-	8G-	8BB-
.	.	.	.	.	8e-	8G-	8BB-
.	.	.	.	.	8e-	8G-	8BB-
=109	=109	=109	=109	=109	=109	=109	=109
2.dd-]	2.b-]	2.cc]	2.c]	2.b-	8g-	8G-	8BB-
.	.	.	.	.	8e-	8G-	8BB-
.	.	.	.	.	8e-	8G-	8BB-
.	.	.	.	.	8g-	8G-	8BB-
.	.	.	.	.	8e-	8G-	8BB-
.	.	.	.	.	8e-	8G-	8BB-
=110	=110	=110	=110	=110	=110	=110	=110
[2.ee	[2.b-	[2.cc	[2.c	4.e-	8e-	8A	8C-
.	.	.	.	.	8e-	8A	8C-
.	.	.	.	.	8e-	8A	8C-
.	.	.	.	4.g-	8e-	8A	8C-
.	.	.	.	.	8e-	8A	8C-
.	.	.	.	.	8e-	8A	8C-
=111	=111	=111	=111	=111	=111	=111	=111
2.ee]	2.b-]	2.cc]	2.c]	2.a	8a	8E-	8C-
.	.	.	.	.	8e-	8G-	8C-
.	.	.	.	.	8e-	8G-	8C-
.	.	.	.	.	8a	8G-	8C-
.	.	.	.	.	8e-	8G-	8C-
.	.	.	.	.	8e-	8G-	8C-
=112	=112	=112	=112	=112	=112	=112	=112
4.ff	4.b-	4cc	4c	8b-	8b-	8B-	8BB-
.	.	.	.	8bb-	8gg	8B-	8BB-
.	.	2r	2r	8bb-	8gg	8B-	8BB-
4.dd	4.b-	.	.	8bb-	8gg	8B-	8BB-
.	.	.	.	8gg	8ee-	8B-	8BB-
.	.	.	.	8ee-	8b-	8B-	8BB-
=113	=113	=113	=113	=113	=113	=113	=113
4.ee-	4.cc	4.r	4.r	8b-	8b-	8B-	8BB-
.	.	.	.	8aa-	8ff	8B-	8BB-
.	.	.	.	8aa-	8ff	8B-	8BB-
4.cc	4.a	4.dd	4.g	8aa-	8ff	8B-	8BB-
.	.	.	.	8ff	8dd	8B-	8BB-
.	.	.	.	8dd	8b-	8B-	8BB-
=114	=114	=114	=114	=114	=114	=114	=114
4b-	4b-	4cc	4e	8ee-	8ee-	8g	8E-
.	.	.	.	8e-	8e-	8g	8E-
2r	2r	2r	2r	8ee-	8ee-	8g	8E-
.	.	.	.	8ee-	8ee-	8b-	8G
.	.	.	.	8e-	8e-	8b-	8G
.	.	.	.	8ee-	8ee-	8b-	8G
=115	=115	=115	=115	=115	=115	=115	=115
8r	8r	4.r	4.r	8c	8c	8a-	8A-
8gg	8ee-	.	.	8cc	8a-	8a-	8A-
8ff	8dd	.	.	8b-	8g	8a-	8A-
8ee-	8cc	4.dd	4.g	8a-	8f	8b-	8B-
8dd	8b-	.	.	8g	8e-	8b-	8B-
8cc	8a	.	.	8f	8d	8b-	8B-
=116	=116	=116	=116	=116	=116	=116	=116
4b-	4b-	4ee	4cc	8e-	8e-	8g	8E-
.	.	.	.	8g	8g	8g	8E-
2r	2r	2r	2r	8b-	8b-	8g	8E-
.	.	.	.	8ee-	8ee-	8b-	8G
.	.	.	.	8e-	8e-	8b-	8G
.	.	.	.	8ee-	8ee-	8b-	8G
=117	=117	=117	=117	=117	=117	=117	=117
8r	8r	4.r	4.r	8c	8c	8a-	8A-
8gg	8ee-	.	.	8cc	8a-	8a-	8A-
8ff	8dd	.	.	8b-	8g	8a-	8A-
8ee-	8cc	4.dd	4.g	8a-	8f	8b-	8B-
8dd	8b-	.	.	8g	8e-	8b-	8B-
8cc	8a	.	.	8f	8d	8b-	8B-
=118	=118	=118	=118	=118	=118	=118	=118
4.b-	4.b-	4.cc	4.e	4.e-	4.e- 4.G	4.e-	4.E-
4.b-	4.d	4.cc	4.e	4.G 4.e-	4.G 4.e-	4.e-	4.E-
=119	=119	=119	=119	=119	=119	=119	=119
4b-	4d	4cc	4e	4.e- 4.G	4e- 4G	4e-	4E-
2r	2r	2r	2r	.	2r	2r	2r
.	.	.	.	4.r	.	.	.
==	==	==	==	==	==	==	==
*-	*-	*-	*-	*-	*-	*-	*-
!!!RWG1: This file contains only pitch and duration data.
!!!RWG2: Transposing instruments are not transposed.
!!!RWG3: Spines may have incompatible meters.
!!!RWG4: Durations of rests and tied notes may be interpreted.
!!!RWG: Key is interpreted using the Humdrum key tool.
!!!OPT: The Philosopher 
!!!AFT: stage1 
!!!END: 2000/12/13
!!format changes:
!!content changes:
!!public access: complete
!!!KEY: 2469385007
!!!EMD: Converted from MuseData to Humdrum Dec 16, 2000, by Andreas Kornstaedt using muse2kern.
